!!!OTL: 136. Freylekhs
!!!Genre:	Freylekhs
!!!Mode:	Minor
!!!Listening/dance:	dance
!!!One_Mode:	no
**kern
*thru
*I"P1
*clefG2
*k[b-e-]
*B-:
!LO:TX:a:i:t=Bb-major
=5
(16gLL
16ccJJ)
4cc
8cc
=6
8ccL
16ddL
16ccJJ
8b-L
8aJ
*>A1
!!!Begin-Modulation1
=7
4b-
4dd
=8
4ff
4bb-
*>A
=1
!LO:TX:a:i:t=G-minor
(16b-LL
16ddJ)
8cc'J
4b-
=2
(16b-LL
16ddJ)
8cc'J
4b-
=3
(16b-LL
16ddJ)
8cc'J
(16b-LL
16ddJ)
8cc'J
=4
(8qcc/
8b-L)
8aJ
4g
!!!Begin-Modulation
*B-:
!LO:TX:a:i:t=Bb-major
=5
(16gLL
16ccJJ)
4cc
8cc
=6
8ccL
16ddL
16ccJJ
8b-L
8aJ
*>A2
!!!Begin-Modulation2
!LO:TX:a:i:t=G-minor
=9:|!
2g
=10
2g
*>B
!!!End-Modulation
=11!|:
*-
